material/.icons/material/cellphone-erase.svg

<?xml version="1.0" encoding="UTF-8"?><!DOCTYPE svg PUBLIC "-//W3C//DTD SVG 1.1//EN" "http://www.w3.org/Graphics/SVG/1.1/DTD/svg11.dtd"><svg xmlns="http://www.w3.org/2000/svg" xmlns:xlink="http://www.w3.org/1999/xlink" version="1.1" id="mdi-cellphone-erase" width="24" height="24" viewBox="0 0 24 24"><path d="M11,8.2L10,7.2L6,11.2L2,7.2L1,8.2L5,12.2L1,16.2L2,17.2L6,13.2L10,17.2L11,16.2L7,12.2L11,8.2M17,1H7A2,2 0 0,0 5,3V6H7V4H17V20H7V18H5V21A2,2 0 0,0 7,23H17A2,2 0 0,0 19,21V3A2,2 0 0,0 17,1Z" /></svg>

<svg xmlns="http://www.w3.org/2000/svg" viewBox="0 0 24 24"><path d="M11 8.2l-1-1-4 4-4-4-1 1 4 4-4 4 1 1 4-4 4 4 1-1-4-4 4-4M17 1H7a2 2 0 00-2 2v3h2V4h10v16H7v-2H5v3a2 2 0 002 2h10a2 2 0 002-2V3a2 2 0 00-2-2z"/></svg>
